src/img/svg/logo.svg

<svg width="50" height="57" viewBox="0 0 50 57" fill="none" xmlns="http://www.w3.org/2000/svg">
<path d="M25.0012 14.4373C25.0012 8.59809 28.7363 3.33163 34.3202 1.61661C36.2158 1.03456 38.2078 0.788671 40.1003 1.21509C45.7495 2.48813 48.9181 8.11253 48.9991 23.6255C49.0831 39.207 43.4743 48.9026 38.1393 55.3737C36.5831 57.2817 30.9057 49.0116 29.6265 42.83C29.4906 42.1499 29.5146 41.4475 29.6966 40.7782C29.8787 40.109 30.2137 39.4912 30.6754 38.9736L30.7283 38.9144C31.1473 38.4349 31.719 38.1149 32.3469 38.0087C34.3669 37.6787 36.776 38.5938 37.0406 37.6663C37.7005 35.3568 38.6311 32.8014 38.3915 32.7018C37.0593 32.1477 35.9917 31.4132 36.0664 30.8902C36.1411 30.3673 37.1807 30.579 38.4755 30.2677C39.3906 30.0716 38.8054 28.201 39.2132 26.6727C39.5649 25.3437 41.392 25.1507 41.3702 24.2418C41.3702 23.6691 36.4274 24.2418 33.9529 11.1691C33.8565 10.6524 26.2276 12.6102 25.0012 20.6095" stroke="#4E4E4E" stroke-width="1.18665" stroke-miterlimit="10"/>
<path d="M25.0012 26.9653V14.4373C25.0012 8.59809 21.2661 3.33163 15.6791 1.61661C13.7835 1.03456 11.7915 0.788671 9.90215 1.21509C4.24974 2.48813 1.03758 8.11253 1.00023 23.6255C0.959762 39.5245 6.37873 49.0303 11.86 55.3737C13.6652 57.4653 22.0194 42.4877 22.0598 34.3421C22.0598 31.7089 20.3635 31.2295 19.9153 29.6732C19.1589 27.0494 20.0211 24.3539 21.5431 24.2294C22.757 24.1298 24.5281 26.293 25.0012 26.9653ZM25.0012 26.9653C24.9986 26.9797 24.9919 26.9931 24.9818 27.0037C24.9718 27.0143 25.0012 25.9008 25.0012 25.9008" stroke="#4E4E4E" stroke-width="1.18665" stroke-miterlimit="10"/>
<path d="M25.0012 26.9653V14.4373C25.0012 8.59809 21.2661 3.33163 15.6791 1.61661C13.7835 1.03456 11.7915 0.788671 9.90215 1.21509C4.24974 2.48813 1.03758 8.11253 1.00023 23.6255C0.959762 39.5245 6.37873 49.0303 11.86 55.3737C13.6652 57.4653 22.0194 42.4877 22.0598 34.3421C22.0598 31.7089 20.3635 31.2295 19.9153 29.6732C19.1589 27.0494 20.0211 24.3539 21.5431 24.2294C22.757 24.1298 24.5281 26.293 25.0012 26.9653ZM25.0012 26.9653C24.9986 26.9797 24.9919 26.9931 24.9818 27.0037C24.9718 27.0143 25.0012 25.9008 25.0012 25.9008" stroke="#4E4E4E" stroke-width="1.18665" stroke-miterlimit="10"/>
<path d="M25.1226 13.7619C25.1226 13.7619 22.4165 7.72484 18.1212 7.54431C9.37802 7.1708 6.79775 20.7353 7.70973 24.4175C9.40919 31.2589 14.1527 31.9561 12.5965 32.7094C8.33847 34.7668 9.63329 40.6557 13.219 42.3583C17.7353 44.5122 20.846 40.0194 21.2319 39.4405" stroke="#4E4E4E" stroke-width="1.18665" stroke-miterlimit="10"/>
</svg>

<svg width="50" height="57" fill="none" xmlns="http://www.w3.org/2000/svg"><path d="M25.001 14.437c0-5.839 3.735-11.105 9.32-12.82 1.895-.582 3.887-.828 5.78-.402 5.648 1.273 8.817 6.898 8.898 22.41.084 15.582-5.525 25.278-10.86 31.749-1.556 1.908-7.233-6.362-8.513-12.544a4.477 4.477 0 0 1 1.05-3.856l.052-.06c.42-.48.991-.8 1.619-.905 2.02-.33 4.429.585 4.694-.343.66-2.31 1.59-4.865 1.35-4.964-1.332-.554-2.4-1.289-2.325-1.812.075-.523 1.115-.311 2.41-.622.915-.196.33-2.067.737-3.595.352-1.33 2.179-1.522 2.157-2.431 0-.573-4.943 0-7.417-13.073-.097-.517-7.725 1.441-8.952 9.44M25.001 26.965V14.437c0-5.839-3.735-11.105-9.322-12.82-1.896-.582-3.888-.828-5.777-.402C4.25 2.488 1.038 8.113 1 23.625.96 39.526 6.38 49.03 11.86 55.374c1.805 2.091 10.16-12.886 10.2-21.032 0-2.633-1.697-3.112-2.145-4.669-.756-2.624.106-5.32 1.628-5.444 1.214-.1 2.985 2.064 3.458 2.736Zm0 0a.075.075 0 0 1-.02.039c-.01.01.02-1.103.02-1.103" stroke="#4E4E4E" stroke-width="1.187" stroke-miterlimit="10"/><path d="M25.001 26.965V14.437c0-5.839-3.735-11.105-9.322-12.82-1.896-.582-3.888-.828-5.777-.402C4.25 2.488 1.038 8.113 1 23.625.96 39.526 6.38 49.03 11.86 55.374c1.805 2.091 10.16-12.886 10.2-21.032 0-2.633-1.697-3.112-2.145-4.669-.756-2.624.106-5.32 1.628-5.444 1.214-.1 2.985 2.064 3.458 2.736Zm0 0a.075.075 0 0 1-.02.039c-.01.01.02-1.103.02-1.103" stroke="#4E4E4E" stroke-width="1.187" stroke-miterlimit="10"/><path d="M25.123 13.762s-2.707-6.037-7.002-6.218C9.378 7.171 6.798 20.735 7.71 24.417c1.7 6.842 6.443 7.54 4.887 8.292-4.259 2.058-2.964 7.947.622 9.65 4.516 2.153 7.627-2.34 8.013-2.919" stroke="#4E4E4E" stroke-width="1.187" stroke-miterlimit="10"/></svg>
